assets/sonr-icons/trophy.svg

<svg xmlns="http://www.w3.org/2000/svg" width="24" height="24" fill="none" viewBox="0 0 24 24"><path fill="#000" d="M13 14H11V18H9C8.448 18 8 18.448 8 19C8 19.552 8.448 20 9 20H15C15.552 20 16 19.552 16 19C16 18.448 15.552 18 15 18H13L13.001 14H13ZM5.143 5.00002C3.407 5.00002 2 6.40702 2 8.14202C2 10.272 3.727 11.999 5.857 11.999H8V9.99902H5.857C4.831 9.99902 4 9.16702 4 8.14202C4 7.51002 4.512 6.99902 5.143 6.99902H8V4.99902L5.143 5.00002ZM18.857 5.00002C20.593 5.00002 22 6.40702 22 8.14202C22 10.272 20.273 11.999 18.143 11.999H16V9.99902H18.143C19.168 9.99902 20 9.16702 20 8.14202C20 7.51002 19.489 6.99902 18.857 6.99902H16V4.99902L18.857 5.00002Z"/><path fill="#000" d="M6.00002 7.308C6.00002 5.481 7.48102 4 9.30702 4H14.691C16.518 4 17.999 5.481 17.999 7.308V10.001C17.999 13.315 15.312 16.001 11.999 16.001C8.68602 16.001 5.99902 13.315 5.99902 10.001L6.00002 7.308ZM9.30802 6C8.58602 6 8.00002 6.586 8.00002 7.308V10.001C8.00002 12.21 9.79102 14.001 12 14.001C14.209 14.001 16 12.21 16 10.001V7.308C16 6.586 15.414 6 14.692 6H9.30902H9.30802Z"/></svg>

<svg xmlns="http://www.w3.org/2000/svg" width="24" height="24" fill="none"><path fill="currentColor" d="M13 14h-2v4H9a1 1 0 0 0 0 2h6a1 1 0 0 0 0-2h-2zM5.143 5A3.143 3.143 0 0 0 2 8.142a3.857 3.857 0 0 0 3.857 3.857H8v-2H5.857A1.857 1.857 0 0 1 4 8.142c0-.632.512-1.143 1.143-1.143H8v-2zm13.714 0A3.143 3.143 0 0 1 22 8.142a3.857 3.857 0 0 1-3.857 3.857H16v-2h2.143A1.86 1.86 0 0 0 20 8.142c0-.632-.511-1.143-1.143-1.143H16v-2z"/><path fill="currentColor" d="M6 7.308A3.31 3.31 0 0 1 9.307 4h5.384a3.31 3.31 0 0 1 3.308 3.308v2.693a6 6 0 0 1-12 0zM9.308 6C8.586 6 8 6.586 8 7.308v2.693a4 4 0 0 0 8 0V7.308C16 6.586 15.414 6 14.692 6H9.308"/></svg>
